packages/IcoMoon/src/EnlargeIcon/index.svg

<svg version="1.1" xmlns="http://www.w3.org/2000/svg" width="16" height="16" viewBox="0 0 16 16">
<path d="M16 0h-6.5l2.5 2.5-3 3 1.5 1.5 3-3 2.5 2.5z"></path>
<path d="M16 16v-6.5l-2.5 2.5-3-3-1.5 1.5 3 3-2.5 2.5z"></path>
<path d="M0 16h6.5l-2.5-2.5 3-3-1.5-1.5-3 3-2.5-2.5z"></path>
<path d="M0 0v6.5l2.5-2.5 3 3 1.5-1.5-3-3 2.5-2.5z"></path>
</svg>

<svg xmlns="http://www.w3.org/2000/svg" viewBox="0 0 16 16">
  <path d="M16 0H9.5L12 2.5l-3 3L10.5 7l3-3L16 6.5zm0 16V9.5L13.5 12l-3-3L9 10.5l3 3L9.5 16zM0 16h6.5L4 13.5l3-3L5.5 9l-3 3L0 9.5zM0 0v6.5L2.5 4l3 3L7 5.5l-3-3L6.5 0z"/>
</svg>
